X:8867
T:La Charge - bourree
Z:abc transcription Simon Wascher
N:please mail errors to: simon.wascher@chello.at
M:2/4
L:1/8
K:Dm
D3/2E/2 FE-|EG AG|D3/2E/2 FE-|E4|
D3/2E/2 FE-|EG AG|D3/2E/2 FG|1GA/2G/2 FE:|2GA/2G/2 FG||
|:A2 cB|BA GF|E3/2F/2 GA-|A4|
DF EG|AB/2A/2 GF|1E2 FG-|GE FG:|2E2 ED|D4|]


